source/img/present-bg.svg

<svg xmlns="http://www.w3.org/2000/svg" viewBox="0 0 496.112 496.112" opacity=".05"><path d="M184.056 160l-40 56v-64zm128 0l40 56v-64zm16 96v104l48-8v-72zm-184 216V360l-72-16v112zm208 0V360l72-16v112zm-184-216v104l-48-8v-72z" fill="#f0bc5e"/><path d="M448.056 325.312v-92.088l-24-4v-92.16l-8-1.144v-6.936c0-22.536-2.776-45.056-8.24-66.928L406.304 56h-20.56c-.624 0-1.24.064-1.864.072-.864-18.744-6.712-36.816-17.168-52.504L364.336 0h-4.28c-42.752 0-82.44 21.24-106.16 56.816l-5.84 8.76-5.84-8.768C218.496 21.24 178.808 0 136.056 0h-4.28L129.4 3.56c-10.456 15.696-16.304 33.76-17.168 52.504-.624 0-1.24-.064-1.864-.064h-20.56l-1.512 6.056a276.413 276.413 0 0 0-8.24 66.928v6.936l-8 1.144v92.16l-24 4v92.088l-48 3.208v126.256l248 41.336 248-41.336V328.512l-48-3.2zm-312-162.504v49.656a231.535 231.535 0 0 0-13.648 30.48l-34.352-5.72v-83.552l48 9.136zm128-74.808c4.416 0 8 3.592 8 8v32c0 4.408-3.584 8-8 8h-32c-4.416 0-8-3.592-8-8V96c0-4.408 3.584-8 8-8h32zm144 65.672v83.552l-34.352 5.728a231.535 231.535 0 0 0-13.648-30.48v-49.656l48-9.144zm8 283.016l-56-56V365.44l8.68-1.448 47.32 47.32v25.376zm-280-56l-56 56v-25.376l47.32-47.32 8.68 1.448v15.248zm24-117.744v9.744l-32 32V284.28l32-21.336zm56.096-117.112c4.24 3.792 9.776 6.168 15.904 6.168h1.32c-22.528 35.816-38.136 75.824-45.664 117.424L171.16 236.32l-38.12 25.408c13.72-47.016 42.984-87.68 83.112-115.896zm-64.096 40.992v-20.96l14.56 2.776a228.506 228.506 0 0 0-14.56 18.184zm127.904-40.992c40.128 28.208 69.392 68.88 83.112 115.888l-38.12-25.408-16.552 33.104c-7.528-41.592-23.136-81.6-45.664-117.424h1.32c6.128.008 11.664-2.368 15.904-6.16zm49.536 22.8l14.56-2.776v20.96a231.424 231.424 0 0 0-14.56-18.184zm6.56 126.68l32 32v20.576l-.68.112-31.32-31.312v-21.376zm32-11.032v20.408l-32-32v-9.744l32 21.336zm-120-116.424l-5.064-.968c1.632-2.744 3.344-5.44 5.064-8.128 1.72 2.688 3.432 5.384 5.064 8.128l-5.064.968zm-13.272 13.76l5.272 1.008v79.936L206.672 257c6.096-26.208 15.6-51.56 28.112-75.384zm21.272 1.008l5.272-1C273.84 205.448 283.344 230.8 289.44 257l-33.384 5.56v-79.936zm-128 165.264v-20.576l32-32v21.376l-31.32 31.32-.68-.12zm20.072 3.352l11.928-11.928v13.912l-11.928-1.984zm27.928-69.352l21.208 42.424 2.752-27.512c.808-8.088 2.048-16.12 3.488-24.112l36.552 6.088v87.784l-64-10.664v-74.008zm80-3.112l36.552-6.096c1.44 7.992 2.672 16.024 3.488 24.112l2.752 27.512 21.208-42.416v74.008l-64 10.664v-87.784zm80 60.536l11.928 11.928-11.928 1.984v-13.912zm48-44.368l4.792 3.192-8.048-32.128c-.648-2.584-1.376-5.128-2.112-7.68l53.368-8.888v87.784l-48 8v-50.28zm-67.784-140.08a240.263 240.263 0 0 0-9.472-8.552l26.528 5.304-17.056 3.248zm-136.432 0l-17.056-3.248 26.528-5.304a228.272 228.272 0 0 0-9.472 8.552zm-62.416 103.472c-.728 2.544-1.464 5.088-2.104 7.672l-8.048 32.136 4.784-3.2v50.28l-48-8V249.44l53.368 8.896zm-9.44 102.424l-27.928 27.928v-32.576l27.928 4.648zm28.072 42.552v21.376l-31.32 31.32-18.32-3.056 49.64-49.64zm0 44v13.912l-11.928-1.984 11.928-11.928zm16-79.2l88 14.664v95.784l-88-14.664v-95.784zm104 14.664l88-14.664v95.784l-88 14.664v-95.784zm104 64.536l11.928 11.928-11.928 1.984v-13.912zm0-22.624v-21.376l49.64 49.64-18.32 3.056-31.32-31.32zm56-36l-27.928-27.928 27.928-4.648v32.576zM393.736 72a260.585 260.585 0 0 1 6.32 56.984v9.92l-24.944 4.752-87.056-17.416v-1.4c8.536-3.936 32.992-12.84 80-12.84V96c-41.008 0-66.432 6.488-80 11.536v-7.064C317.328 81.896 350.984 72 385.744 72h7.992zm-38.032-55.912c7.416 12.4 11.44 26.376 12.088 40.816-29.408 2.648-57.704 11.808-83.176 26.912a24.035 24.035 0 0 0-2.816-3.824C289.008 70.464 309.664 48 344.056 48V32c-43.856 0-69.04 29.944-76.48 40.352-1.16-.168-2.312-.352-3.52-.352H263l4.208-6.312c19.944-29.904 52.776-48.224 88.496-49.6zm-215.296 0c35.72 1.376 68.552 19.696 88.496 49.6L233.112 72h-1.056c-1.208 0-2.36.184-3.52.352C221.096 61.944 195.912 32 152.056 32v16c34.392 0 55.048 22.464 62.256 31.984a24.035 24.035 0 0 0-2.816 3.824c-25.472-15.104-53.768-24.264-83.176-26.912.648-14.432 4.672-28.408 12.088-40.808zM102.376 72h7.992c34.76 0 68.408 9.896 97.688 28.464v7.064c-13.568-5.04-38.992-11.528-80-11.528v16c47.008 0 71.464 8.904 80 12.84v1.4L121 143.648l-24.944-4.744v-9.92c0-19.152 2.128-38.296 6.32-56.984zm-86.32 273.44l48 8v95.784l-48-8V345.44zm416 103.784V353.44l48-8v95.784l-48 8z"/></svg>

<?xml version="1.0" encoding="iso-8859-1"?>
<!-- Generator: Adobe Illustrator 19.0.0, SVG Export Plug-In . SVG Version: 6.00 Build 0)  -->
<svg version="1.1" id="Capa_1" xmlns="http://www.w3.org/2000/svg" xmlns:xlink="http://www.w3.org/1999/xlink" x="0px" y="0px"
	 viewBox="0 0 496.112 496.112" style="enable-background:new 0 0 496.112 496.112; opacity: 0.05;" xml:space="preserve">
<g>
	<polygon style="fill:#F0BC5E;" points="184.056,160 144.056,216 144.056,152 	"/>
	<polygon style="fill:#F0BC5E;" points="312.056,160 352.056,216 352.056,152 	"/>
	<polygon style="fill:#F0BC5E;" points="328.056,256 328.056,360 376.056,352 376.056,280 	"/>
	<polygon style="fill:#F0BC5E;" points="144.056,472 144.056,360 72.056,344 72.056,456 	"/>
	<polygon style="fill:#F0BC5E;" points="352.056,472 352.056,360 424.056,344 424.056,456 	"/>
	<polygon style="fill:#F0BC5E;" points="168.056,256 168.056,360 120.056,352 120.056,280 	"/>
</g>
<path d="M448.056,325.312v-92.088l-24-4v-92.16l-8-1.144v-6.936c0-22.536-2.776-45.056-8.24-66.928L406.304,56h-20.56
	c-0.624,0-1.24,0.064-1.864,0.072c-0.864-18.744-6.712-36.816-17.168-52.504L364.336,0h-4.28c-42.752,0-82.44,21.24-106.16,56.816
	l-5.84,8.76l-5.84-8.768C218.496,21.24,178.808,0,136.056,0h-4.28L129.4,3.56c-10.456,15.696-16.304,33.76-17.168,52.504
	c-0.624,0-1.24-0.064-1.864-0.064h-20.56l-1.512,6.056c-5.464,21.872-8.24,44.392-8.24,66.928v6.936l-8,1.144v92.16l-24,4v92.088
	l-48,3.208v126.256l248,41.336l248-41.336V328.512L448.056,325.312z M136.056,162.808v49.656c-5.256,9.784-9.824,19.96-13.648,30.48
	l-34.352-5.72v-83.552L136.056,162.808z M264.056,88c4.416,0,8,3.592,8,8v32c0,4.408-3.584,8-8,8h-32c-4.416,0-8-3.592-8-8V96
	c0-4.408,3.584-8,8-8H264.056z M408.056,153.672v83.552l-34.352,5.728c-3.824-10.52-8.392-20.696-13.648-30.48v-49.656
	L408.056,153.672z M416.056,436.688l-56-56V365.44l8.68-1.448l47.32,47.32V436.688z M136.056,380.688l-56,56v-25.376l47.32-47.32
	l8.68,1.448V380.688z M160.056,262.944v9.744l-32,32V284.28L160.056,262.944z M216.152,145.832c4.24,3.792,9.776,6.168,15.904,6.168
	h1.32c-22.528,35.816-38.136,75.824-45.664,117.424L171.16,236.32l-38.12,25.408C146.76,214.712,176.024,174.048,216.152,145.832z
	 M152.056,186.824v-20.96l14.56,2.776C161.456,174.456,156.592,180.52,152.056,186.824z M279.96,145.832
	c40.128,28.208,69.392,68.88,83.112,115.888l-38.12-25.408L308.4,269.416c-7.528-41.592-23.136-81.6-45.664-117.424h1.32
	C270.184,152,275.72,149.624,279.96,145.832z M329.496,168.632l14.56-2.776v20.96C339.52,180.52,334.656,174.456,329.496,168.632z
	 M336.056,295.312l32,32v20.576l-0.68,0.112l-31.32-31.312V295.312z M368.056,284.28v20.408l-32-32v-9.744L368.056,284.28z
	 M248.056,167.856l-5.064-0.968c1.632-2.744,3.344-5.44,5.064-8.128c1.72,2.688,3.432,5.384,5.064,8.128L248.056,167.856z
	 M234.784,181.616l5.272,1.008v79.936L206.672,257C212.768,230.792,222.272,205.44,234.784,181.616z M256.056,182.624l5.272-1
	C273.84,205.448,283.344,230.8,289.44,257l-33.384,5.56V182.624z M128.056,347.888v-20.576l32-32v21.376l-31.32,31.32
	L128.056,347.888z M148.128,351.24l11.928-11.928v13.912L148.128,351.24z M176.056,281.888l21.208,42.424l2.752-27.512
	c0.808-8.088,2.048-16.12,3.488-24.112l36.552,6.088v87.784l-64-10.664V281.888z M256.056,278.776l36.552-6.096
	c1.44,7.992,2.672,16.024,3.488,24.112l2.752,27.512l21.208-42.416v74.008l-64,10.664V278.776z M336.056,339.312l11.928,11.928
	l-11.928,1.984V339.312z M384.056,294.944l4.792,3.192l-8.048-32.128c-0.648-2.584-1.376-5.128-2.112-7.68l53.368-8.888v87.784
	l-48,8V294.944z M316.272,154.864c-3.072-2.936-6.24-5.776-9.472-8.552l26.528,5.304L316.272,154.864z M179.84,154.864
	l-17.056-3.248l26.528-5.304C186.08,149.08,182.912,151.92,179.84,154.864z M117.424,258.336c-0.728,2.544-1.464,5.088-2.104,7.672
	l-8.048,32.136l4.784-3.2v50.28l-48-8V249.44L117.424,258.336z M107.984,360.76l-27.928,27.928v-32.576L107.984,360.76z
	 M136.056,403.312v21.376l-31.32,31.32l-18.32-3.056L136.056,403.312z M136.056,447.312v13.912l-11.928-1.984L136.056,447.312z
	 M152.056,368.112l88,14.664v95.784l-88-14.664V368.112z M256.056,382.776l88-14.664v95.784l-88,14.664V382.776z M360.056,447.312
	l11.928,11.928l-11.928,1.984V447.312z M360.056,424.688v-21.376l49.64,49.64l-18.32,3.056L360.056,424.688z M416.056,388.688
	l-27.928-27.928l27.928-4.648V388.688z M393.736,72c4.192,18.688,6.32,37.832,6.32,56.984v9.92l-24.944,4.752l-87.056-17.416v-1.4
	c8.536-3.936,32.992-12.84,80-12.84V96c-41.008,0-66.432,6.488-80,11.536v-7.064C317.328,81.896,350.984,72,385.744,72H393.736z
	 M355.704,16.088c7.416,12.4,11.44,26.376,12.088,40.816c-29.408,2.648-57.704,11.808-83.176,26.912
	c-0.816-1.368-1.752-2.648-2.816-3.824C289.008,70.464,309.664,48,344.056,48V32c-43.856,0-69.04,29.944-76.48,40.352
	c-1.16-0.168-2.312-0.352-3.52-0.352H263l4.208-6.312C287.152,35.784,319.984,17.464,355.704,16.088z M140.408,16.088
	c35.72,1.376,68.552,19.696,88.496,49.6L233.112,72h-1.056c-1.208,0-2.36,0.184-3.52,0.352C221.096,61.944,195.912,32,152.056,32v16
	c34.392,0,55.048,22.464,62.256,31.984c-1.064,1.176-2,2.456-2.816,3.824c-25.472-15.104-53.768-24.264-83.176-26.912
	C128.968,42.464,132.992,28.488,140.408,16.088z M102.376,72h7.992c34.76,0,68.408,9.896,97.688,28.464v7.064
	c-13.568-5.04-38.992-11.528-80-11.528v16c47.008,0,71.464,8.904,80,12.84v1.4L121,143.648l-24.944-4.744v-9.92
	C96.056,109.832,98.184,90.688,102.376,72z M16.056,345.44l48,8v95.784l-48-8V345.44z M432.056,449.224V353.44l48-8v95.784
	L432.056,449.224z"/>
<g>
</g>
<g>
</g>
<g>
</g>
<g>
</g>
<g>
</g>
<g>
</g>
<g>
</g>
<g>
</g>
<g>
</g>
<g>
</g>
<g>
</g>
<g>
</g>
<g>
</g>
<g>
</g>
<g>
</g>
</svg>
